icons/VisualScript.svg

<svg height="16" viewBox="0 0 16 16" width="16" xmlns="http://www.w3.org/2000/svg"><g transform="translate(0 -1036.4)"><ellipse cx="3" cy="1039.4" fill="#e0e0e0"/><path d="m7 1-.56445 2.2578a5 5 0 0 0 -.68945.2793l-1.9883-1.1934-1.4141 1.4141 1.1953 1.9941a5 5 0 0 0 -.28516.68555l-2.2539.5625v2h5.2715a2 2 0 0 1 -.27148-1 2 2 0 0 1 2-2 2 2 0 0 1 2 2 2 2 0 0 1 -.26953 1h5.2695v-2l-2.2578-.56445a5 5 0 0 0 -.2793-.6875l1.1934-1.9902-1.4141-1.4141-1.9941 1.1953a5 5 0 0 0 -.68555-.28516l-.5625-2.2539h-2zm-4 9v6h2a3 3 0 0 0 3-3v-3h-2v3a1 1 0 0 1 -1 1v-4zm8 0a2 2 0 0 0 -1.7324 1 2 2 0 0 0 0 2 2 2 0 0 0 1.7324 1h-2v2h2a2 2 0 0 0 1.7324-1 2 2 0 0 0 0-2 2 2 0 0 0 -1.7324-1h2v-2z" fill="#e0e0e0" transform="translate(0 1036.4)"/></g></svg>

<svg xmlns="http://www.w3.org/2000/svg" height="16" width="16"><path d="M7 1l-.564 2.258a5 5 0 0 0-.689.279L3.758 2.344 2.344 3.758l1.195 1.994a5 5 0 0 0-.285.686L1 7v2h5.272A2 2 0 0 1 8 6a2 2 0 0 1 1.73 3H15V7l-2.258-.564a5 5 0 0 0-.279-.687l1.193-1.99-1.414-1.414-1.994 1.195a5 5 0 0 0-.686-.285L9 1H7zm-4 9v6h2a3 3 0 0 0 3-3v-3H6v3a1 1 0 0 1-1 1v-4zm8 0a2 2 0 0 0-1.732 3A2 2 0 0 0 11 14H9v2h2a2 2 0 0 0 1.732-3A2 2 0 0 0 11 12h2v-2z" fill="#e0e0e0"/></svg>
